assets/icons/okex.svg

<svg fill="none" height="40" viewBox="0 0 113 40" width="113" xmlns="http://www.w3.org/2000/svg" xmlns:xlink="http://www.w3.org/1999/xlink"><clipPath id="a"><path d="m.079102 0h112.637v40h-112.637z"/></clipPath><g clip-path="url(#a)" fill="#c0c0c0"><path d="m63.5528 20.0766c.009 1.2787-.2051 2.5492-.6329 3.7542-.4013 1.1368-1.0228 2.1832-1.8288 3.0796-.8244.8984-1.8309 1.6108-2.9523 2.0896-2.5745 1.0328-5.4483 1.0328-8.0229 0-1.1253-.4826-2.1363-1.197-2.9671-2.0965-.8127-.8911-1.435-1.9387-1.8289-3.0786-.8249-2.4308-.8249-5.0658 0-7.4965.3912-1.1462 1.0137-2.1999 1.8289-3.0956.8317-.8967 1.8426-1.6086 2.9671-2.0895 2.5717-1.0319 5.4423-1.0319 8.014 0 1.1222.4805 2.1291 1.1949 2.9532 2.0955.8117.9008 1.4361 1.9541 1.8368 3.0985.4248 1.2007.6389 2.4657.6329 3.7393zm-9.4209 6.61c.8289.0219 1.6517-.1484 2.4039-.4976.6707-.3272 1.2575-.8038 1.7155-1.393.4784-.6244.8287-1.3372 1.0308-2.0975.4507-1.7145.4507-3.5164 0-5.2308-.2013-.7595-.5502-1.4719-1.0269-2.0966-.4579-.5892-1.0447-1.0657-1.7154-1.393-1.5321-.6757-3.2778-.6757-4.8099 0-.6707.3273-1.2575.8038-1.7155 1.393-.4766.6247-.8255 1.3371-1.0268 2.0966-.4508 1.7144-.4508 3.5163 0 5.2308.2031.7544.5523 1.4617 1.0278 2.0816.4576.59 1.0449 1.0667 1.7165 1.393.7509.3542 1.5738.5293 2.4039.5115zm11.8955 2.7552v-18.7284h3.9373v8.999l6.4965-8.999h4.5562l-6.8905 9.2538 7.3692 9.4776h-4.8657l-6.6667-9.196v9.196zm17.0149-18.7284h11.2548v3.1214h-7.3165v4.5274h6.9752v3.1214h-6.9752v4.8378h7.3971v3.1204h-11.3344zm25.2737 0h4.279l-6.156 9.3085 6.276 9.4199h-4.303l-4.043-6.3841-4.045 6.3841h-4.3145l6.2685-9.4209-6.1501-9.3095h4.2791l3.965 6.3304z"/><path d="m17.9667 17.8875c1.41.3452 2.8825.3452 4.2925 0 .8025-3.2663 3.3527-5.8165 6.6189-6.619.8895-3.63796-.5606-7.44728-3.6441-9.57287-3.0836-2.125586-7.1596-2.125586-10.2431 0-3.0835 2.12559-4.5336 5.93491-3.6441 9.57287 3.2666.8022 5.8172 3.3525 6.6199 6.619z"/><path d="m22.2592 22.178c-1.41-.3453-2.8825-.3453-4.2925 0-.8031 3.2659-3.3531 5.8158-6.6189 6.6189-.8895 3.638.5606 7.4474 3.6441 9.5729 3.0835 2.1256 7.1595 2.1256 10.2431 0 3.0835-2.1255 4.5336-5.9349 3.6441-9.5729-3.2666-.8021-5.8172-3.3524-6.6199-6.6189z"/><path d="m31.0234 11.0088c-.7229-.0001-1.4432.0868-2.1453.2587-.8022 3.2658-3.3521 5.8157-6.6179 6.6179-.3453 1.4101-.3453 2.8826 0 4.2926 3.2658.8028 5.8156 3.3529 6.6179 6.6189 3.3829.8263 6.9393-.3677 9.1383-3.0678s2.6481-6.4246 1.154-9.5701-4.6647-5.1506-8.147-5.1522z"/><path d="m17.9667 22.1779c.3452-1.41.3452-2.8825 0-4.2925-3.266-.8023-5.8161-3.3521-6.6189-6.6179-3.63805-.8895-7.44737.5606-9.57296 3.6441-2.125588 3.0836-2.125588 7.1596 0 10.2431 2.12559 3.0835 5.93491 4.5336 9.57296 3.6441.802-3.2668 3.3522-5.8178 6.6189-6.6209z"/><g fill-opacity=".35"><path d="m22.2592 17.8875c3.2659-.8031 5.8158-3.3531 6.6189-6.6189-3.2662.8024-5.8164 3.3526-6.6189 6.6189z"/><path d="m22.2592 22.1781c.8025 3.2662 3.3527 5.8164 6.6189 6.6189-.8031-3.2659-3.353-5.8158-6.6189-6.6189z"/><path d="m17.9667 17.8875c-.8031-3.2659-3.3531-5.8158-6.6189-6.6189.8031 3.2658 3.353 5.8158 6.6189 6.6189z"/><path d="m17.9667 22.1781c-3.2659.8031-5.8158 3.353-6.6189 6.6189 3.2658-.8031 5.8158-3.353 6.6189-6.6189z"/></g></g></svg>

<svg width="113" height="40" viewBox="0 0 113 40" fill="none" xmlns="http://www.w3.org/2000/svg">
<g clip-path="url(#clip0)">
<path d="M63.5528 20.0766C63.5618 21.3553 63.3477 22.6258 62.9199 23.8308C62.5186 24.9676 61.8971 26.014 61.0911 26.9104C60.2667 27.8088 59.2602 28.5212 58.1388 29C55.5643 30.0328 52.6905 30.0328 50.1159 29C48.9906 28.5174 47.9796 27.803 47.1488 26.9035C46.3361 26.0124 45.7138 24.9648 45.3199 23.8249C44.495 21.3941 44.495 18.7591 45.3199 16.3284C45.7111 15.1822 46.3336 14.1285 47.1488 13.2328C47.9805 12.3361 48.9914 11.6242 50.1159 11.1433C52.6876 10.1114 55.5582 10.1114 58.1299 11.1433C59.2521 11.6238 60.259 12.3382 61.0831 13.2388C61.8948 14.1396 62.5192 15.1929 62.9199 16.3373C63.3447 17.538 63.5588 18.803 63.5528 20.0766ZM54.1319 26.6866C54.9608 26.7085 55.7836 26.5382 56.5358 26.189C57.2065 25.8618 57.7933 25.3852 58.2513 24.796C58.7297 24.1716 59.08 23.4588 59.2821 22.6985C59.7328 20.984 59.7328 19.1821 59.2821 17.4677C59.0808 16.7082 58.7319 15.9958 58.2552 15.3711C57.7973 14.7819 57.2105 14.3054 56.5398 13.9781C55.0077 13.3024 53.262 13.3024 51.7299 13.9781C51.0592 14.3054 50.4724 14.7819 50.0144 15.3711C49.5378 15.9958 49.1889 16.7082 48.9876 17.4677C48.5368 19.1821 48.5368 20.984 48.9876 22.6985C49.1907 23.4529 49.5399 24.1602 50.0154 24.7801C50.473 25.3701 51.0603 25.8468 51.7319 26.1731C52.4828 26.5273 53.3057 26.7024 54.1358 26.6846L54.1319 26.6866ZM66.0274 29.4418V10.7134H69.9647V19.7124L76.4612 10.7134H81.0174L74.1269 19.9672L81.4961 29.4448H76.6304L69.9637 20.2488V29.4448L66.0274 29.4418ZM83.0423 10.7134H94.2971V13.8348H86.9806V18.3622H93.9558V21.4836H86.9806V26.3214H94.3777V29.4418H83.0433L83.0423 10.7134ZM108.316 10.7134H112.595L106.439 20.0219L112.715 29.4418H108.412L104.369 23.0577L100.324 29.4418H96.0095L102.278 20.0209L96.1279 10.7114H100.407L104.372 17.0418L108.316 10.7134Z" fill="#C0C0C0"/>
<path d="M17.9667 17.8875C19.3767 18.2327 20.8492 18.2327 22.2592 17.8875C23.0617 14.6212 25.6119 12.071 28.8781 11.2685C29.7676 7.63054 28.3175 3.82122 25.234 1.69563C22.1504 -0.429956 18.0744 -0.429956 14.9909 1.69563C11.9074 3.82122 10.4573 7.63054 11.3468 11.2685C14.6134 12.0707 17.164 14.621 17.9667 17.8875Z" fill="#C0C0C0"/>
<path d="M22.2592 22.178C20.8492 21.8327 19.3767 21.8327 17.9667 22.178C17.1636 25.4439 14.6136 27.9938 11.3478 28.7969C10.4583 32.4349 11.9084 36.2443 14.9919 38.3698C18.0754 40.4954 22.1514 40.4954 25.235 38.3698C28.3185 36.2443 29.7686 32.4349 28.8791 28.7969C25.6125 27.9948 23.0619 25.4445 22.2592 22.178Z" fill="#C0C0C0"/>
<path d="M31.0234 11.0088C30.3005 11.0087 29.5802 11.0956 28.8781 11.2675C28.0759 14.5333 25.526 17.0832 22.2602 17.8854C21.9149 19.2955 21.9149 20.768 22.2602 22.178C25.526 22.9808 28.0758 25.5309 28.8781 28.7969C32.261 29.6232 35.8174 28.4292 38.0164 25.7291C40.2154 23.029 40.6645 19.3045 39.1704 16.159C37.6763 13.0135 34.5057 11.0084 31.0234 11.0068V11.0088Z" fill="#C0C0C0"/>
<path d="M17.9667 22.1779C18.3119 20.7679 18.3119 19.2954 17.9667 17.8854C14.7007 17.0831 12.1506 14.5333 11.3478 11.2675C7.70975 10.378 3.90043 11.8281 1.77484 14.9116C-0.350748 17.9952 -0.350748 22.0712 1.77484 25.1547C3.90043 28.2382 7.70975 29.6883 11.3478 28.7988C12.1498 25.532 14.7 22.981 17.9667 22.1779Z" fill="#C0C0C0"/>
<path d="M22.2592 17.8875C25.5251 17.0844 28.075 14.5344 28.8781 11.2686C25.6119 12.071 23.0617 14.6212 22.2592 17.8875Z" fill="#C0C0C0" fill-opacity="0.35"/>
<path d="M22.2592 22.1781C23.0617 25.4443 25.6119 27.9945 28.8781 28.797C28.075 25.5311 25.5251 22.9812 22.2592 22.1781Z" fill="#C0C0C0" fill-opacity="0.35"/>
<path d="M17.9667 17.8875C17.1636 14.6216 14.6136 12.0717 11.3478 11.2686C12.1509 14.5344 14.7008 17.0844 17.9667 17.8875Z" fill="#C0C0C0" fill-opacity="0.35"/>
<path d="M17.9667 22.1781C14.7008 22.9812 12.1509 25.5311 11.3478 28.797C14.6136 27.9939 17.1636 25.444 17.9667 22.1781Z" fill="#C0C0C0" fill-opacity="0.35"/>
</g>
<defs>
<clipPath id="clip0">
<rect width="112.637" height="40" fill="white" transform="translate(0.0791016)"/>
</clipPath>
</defs>
</svg>
